img/work/logo-rebbix_labs.svg

<?xml version="1.0" encoding="UTF-8" standalone="no"?>
<svg width="135px" height="14px" viewBox="0 0 135 14" version="1.1" xmlns="http://www.w3.org/2000/svg" xmlns:xlink="http://www.w3.org/1999/xlink">
    <!-- Generator: Sketch 41 (35326) - http://www.bohemiancoding.com/sketch -->
    <title>Group 2</title>
    <desc>Created with Sketch.</desc>
    <defs></defs>
    <g id="Content-real" stroke="none" stroke-width="1" fill="none" fill-rule="evenodd">
        <g id="Work-Copy" transform="translate(-182.000000, -1622.000000)" fill="#9B9B9B">
            <g id="Group-11" transform="translate(120.000000, 1558.000000)">
                <g id="Group-2" transform="translate(62.000000, 64.000000)">
                    <path d="M4.85,7.492 C7.1,7.492 7.604,8.266 7.604,10.048 L7.604,10.3 C7.604,11.488 7.586,12.46 7.82,13 L9.44,13 C9.224,12.478 9.26,11.38 9.26,10.516 L9.26,9.976 C9.26,7.816 8.378,7.042 7.352,6.772 C8.558,6.448 9.494,5.458 9.494,3.82 C9.494,1.876 8.126,0.472 5.552,0.472 L0.656,0.472 L0.656,13 L2.294,13 L2.294,7.492 L4.85,7.492 Z M2.294,1.876 L5.21,1.876 C6.902,1.876 7.766,2.632 7.766,3.964 C7.766,5.368 6.938,6.088 5.012,6.088 L2.294,6.088 L2.294,1.876 Z M22.7214285,5.728 L16.4934285,5.728 L16.4934285,1.894 L23.0274285,1.894 L23.0274285,0.472 L14.8734285,0.472 L14.8734285,13 L23.1174285,13 L23.3334285,11.578 L16.4934285,11.578 L16.4934285,7.15 L22.7214285,7.15 L22.7214285,5.728 Z M28.1908571,13 L33.1048571,13 C35.4808571,13 37.2808571,11.686 37.2808571,9.328 C37.2808571,7.492 35.9488571,6.61 35.0668571,6.34 C36.0388571,5.998 36.8668571,5.062 36.8668571,3.604 C36.8668571,1.876 35.6428571,0.472 32.9968571,0.472 L28.1908571,0.472 L28.1908571,13 Z M29.8108571,5.692 L29.8108571,1.858 L32.9248571,1.858 C34.4008571,1.858 35.1928571,2.632 35.1928571,3.748 C35.1928571,4.972 34.4908571,5.692 32.6728571,5.692 L29.8108571,5.692 Z M29.8108571,7.06 L32.5828571,7.06 C34.7068571,7.06 35.5708571,7.978 35.5708571,9.328 C35.5708571,10.894 34.4728571,11.632 32.9068571,11.632 L29.8108571,11.632 L29.8108571,7.06 Z M42.3902856,13 L47.3042856,13 C49.6802856,13 51.4802856,11.686 51.4802856,9.328 C51.4802856,7.492 50.1482856,6.61 49.2662856,6.34 C50.2382856,5.998 51.0662856,5.062 51.0662856,3.604 C51.0662856,1.876 49.8422856,0.472 47.1962856,0.472 L42.3902856,0.472 L42.3902856,13 Z M44.0102856,5.692 L44.0102856,1.858 L47.1242856,1.858 C48.6002856,1.858 49.3922856,2.632 49.3922856,3.748 C49.3922856,4.972 48.6902856,5.692 46.8722856,5.692 L44.0102856,5.692 Z M44.0102856,7.06 L46.7822856,7.06 C48.9062856,7.06 49.7702856,7.978 49.7702856,9.328 C49.7702856,10.894 48.6722856,11.632 47.1062856,11.632 L44.0102856,11.632 L44.0102856,7.06 Z M56.5897141,0.472 L56.5897141,13 L58.2457141,13 L58.2457141,0.472 L56.5897141,0.472 Z M73.1831427,13 L68.8811427,6.52 L73.0391427,0.472 L71.2031427,0.472 L67.9631427,5.35 L67.9451427,5.35 L64.7951427,0.472 L62.8691427,0.472 L66.9371427,6.664 L62.7071427,13 L64.5431427,13 L67.8911427,7.852 L67.9091427,7.852 L71.2391427,13 L73.1831427,13 Z M84.4999998,13 L92.4559998,13 L92.6899998,11.578 L86.1559998,11.578 L86.1559998,0.472 L84.4999998,0.472 L84.4999998,13 Z M104.495428,9.238 L105.881428,13 L107.663428,13 L103.001428,0.472 L100.967428,0.472 L96.5034283,13 L98.1594283,13 L99.5094283,9.238 L104.495428,9.238 Z M99.9414283,7.816 C100.895428,5.008 101.633428,2.884 101.939428,1.822 L101.957428,1.822 C102.227428,2.776 102.875428,4.522 104.081428,7.816 L99.9414283,7.816 Z M112.196857,13 L117.110857,13 C119.486857,13 121.286857,11.686 121.286857,9.328 C121.286857,7.492 119.954857,6.61 119.072857,6.34 C120.044857,5.998 120.872857,5.062 120.872857,3.604 C120.872857,1.876 119.648857,0.472 117.002857,0.472 L112.196857,0.472 L112.196857,13 Z M113.816857,5.692 L113.816857,1.858 L116.930857,1.858 C118.406857,1.858 119.198857,2.632 119.198857,3.748 C119.198857,4.972 118.496857,5.692 116.678857,5.692 L113.816857,5.692 Z M113.816857,7.06 L116.588857,7.06 C118.712857,7.06 119.576857,7.978 119.576857,9.328 C119.576857,10.894 118.478857,11.632 116.912857,11.632 L113.816857,11.632 L113.816857,7.06 Z M125.586285,9.508 C125.856285,11.434 127.206285,13.162 130.356285,13.162 C133.416285,13.162 134.910285,11.578 134.910285,9.562 C134.910285,7.942 134.280285,6.556 130.716285,5.692 C128.520285,5.152 127.818285,4.684 127.818285,3.514 C127.818285,2.326 128.664285,1.642 130.194285,1.642 C132.030285,1.642 132.714285,2.56 132.948285,3.658 L134.640285,3.658 C134.460285,2.02 133.236285,0.292 130.248285,0.292 C127.458285,0.292 126.090285,1.804 126.090285,3.676 C126.090285,5.44 127.116285,6.448 130.068285,7.168 C132.570285,7.762 133.182285,8.464 133.182285,9.724 C133.182285,10.912 132.408285,11.83 130.464285,11.83 C128.646285,11.83 127.620285,11.02 127.278285,9.508 L125.586285,9.508 Z" id="REBBIX-LABS"></path>
                </g>
            </g>
        </g>
    </g>
</svg>

<svg width="135" height="14" viewBox="0 0 135 14" xmlns="http://www.w3.org/2000/svg"><title>Group 2</title><path d="M4.85 7.492c2.25 0 2.754.774 2.754 2.556v.252c0 1.188-.018 2.16.216 2.7h1.62c-.216-.522-.18-1.62-.18-2.484v-.54c0-2.16-.882-2.934-1.908-3.204 1.206-.324 2.142-1.314 2.142-2.952 0-1.944-1.368-3.348-3.942-3.348H.656V13h1.638V7.492H4.85zM2.294 1.876H5.21c1.692 0 2.556.756 2.556 2.088 0 1.404-.828 2.124-2.754 2.124H2.294V1.876zm20.427 3.852h-6.228V1.894h6.534V.472h-8.154V13h8.244l.216-1.422h-6.84V7.15h6.228V5.728zM28.191 13h4.914c2.376 0 4.176-1.314 4.176-3.672 0-1.836-1.332-2.718-2.214-2.988.972-.342 1.8-1.278 1.8-2.736 0-1.728-1.224-3.132-3.87-3.132H28.19V13zm1.62-7.308V1.858h3.114c1.476 0 2.268.774 2.268 1.89 0 1.224-.702 1.944-2.52 1.944H29.81zm0 1.368h2.772c2.124 0 2.988.918 2.988 2.268 0 1.566-1.098 2.304-2.664 2.304H29.81V7.06zM42.39 13h4.913c2.376 0 4.176-1.314 4.176-3.672 0-1.836-1.332-2.718-2.214-2.988.972-.342 1.8-1.278 1.8-2.736 0-1.728-1.224-3.132-3.87-3.132H42.39V13zm1.62-7.308V1.858h3.113c1.476 0 2.268.774 2.268 1.89 0 1.224-.702 1.944-2.52 1.944H44.01zm0 1.368h2.771c2.124 0 2.988.918 2.988 2.268 0 1.566-1.098 2.304-2.664 2.304H44.01V7.06zM56.59.472V13h1.656V.472H56.59zM73.183 13l-4.302-6.48L73.04.472h-1.836l-3.24 4.878h-.018L64.795.472H62.87l4.068 6.192L62.707 13h1.836l3.348-5.148h.018L71.24 13h1.944zM84.5 13h7.956l.234-1.422h-6.534V.472H84.5V13zm19.995-3.762L105.881 13h1.782L103.001.472h-2.034L96.503 13h1.656l1.35-3.762h4.986zm-4.554-1.422c.954-2.808 1.692-4.932 1.998-5.994h.018c.27.954.918 2.7 2.124 5.994h-4.14zM112.197 13h4.914c2.376 0 4.176-1.314 4.176-3.672 0-1.836-1.332-2.718-2.214-2.988.972-.342 1.8-1.278 1.8-2.736 0-1.728-1.224-3.132-3.87-3.132h-4.806V13zm1.62-7.308V1.858h3.114c1.476 0 2.268.774 2.268 1.89 0 1.224-.702 1.944-2.52 1.944h-2.862zm0 1.368h2.772c2.124 0 2.988.918 2.988 2.268 0 1.566-1.098 2.304-2.664 2.304h-3.096V7.06zm11.77 2.448c.27 1.926 1.62 3.654 4.77 3.654 3.06 0 4.553-1.584 4.553-3.6 0-1.62-.63-3.006-4.194-3.87-2.196-.54-2.898-1.008-2.898-2.178 0-1.188.846-1.872 2.376-1.872 1.836 0 2.52.918 2.754 2.016h1.692c-.18-1.638-1.404-3.366-4.392-3.366-2.79 0-4.158 1.512-4.158 3.384 0 1.764 1.026 2.772 3.978 3.492 2.502.594 3.114 1.296 3.114 2.556 0 1.188-.774 2.106-2.718 2.106-1.818 0-2.844-.81-3.186-2.322h-1.692z" fill="#9B9B9B" fill-rule="evenodd"/></svg>
